(Exported by FreeCAD)
(Post Processor: linuxcnc_post)
(Output Time:2018-12-30 22:57:52.137898)
(begin preamble)
G17 G54 G40 G49 G80 G90
G21
(begin operation: Coarse)
(machine: not set, mm/min)
(Coarse)
M6 T3
M3 S0
(finish operation: Coarse)
(begin operation: Carve)
(machine: not set, mm/min)
(Carve)
G0 Z17.700
G0 X178.235 Y112.639
G0 Z15.700
G1 X178.235 Y112.639 Z9.530 F60.000
G1 X11.205 Y112.639 Z9.530 F60.000
G1 X11.205 Y4.609 Z9.530 F60.000
G1 X77.223 Y4.609 Z9.530 F60.000
G2 X78.688 Y3.605 Z9.530 I0.010 J-1.557 F60.000
G1 X110.758 Y3.605 Z9.530 F60.000
G2 X112.223 Y4.609 Z9.530 I1.456 J-0.553 F60.000
G1 X178.235 Y4.609 Z9.530 F60.000
G1 X178.235 Y112.639 Z9.530 F60.000
G0 X178.235 Y112.639 Z17.700
G0 X177.499 Y111.813 Z17.700
G1 X177.499 Y111.813 Z9.530 F60.000
G3 X176.444 Y112.215 Z9.530 I-1.055 J-1.183 F60.000
G1 X13.000 Y112.215 Z9.530 F60.000
G3 X11.415 Y110.630 Z9.530 I0.000 J-1.585 F60.000
G1 X11.415 Y13.000 Z9.530 F60.000
G3 X13.000 Y11.415 Z9.530 I1.585 J0.000 F60.000
G1 X176.444 Y11.415 Z9.530 F60.000
G3 X178.029 Y13.000 Z9.530 I-0.000 J1.585 F60.000
G1 X178.029 Y110.630 Z9.530 F60.000
G3 X177.499 Y111.813 Z9.530 I-1.585 J-0.000 F60.000
G0 X177.499 Y111.813 Z17.700
G0 X176.650 Y9.846 Z17.700
G1 X176.650 Y9.846 Z9.530 F60.000
G1 X176.444 Y9.830 Z9.530 F60.000
G1 X13.000 Y9.830 Z9.530 F60.000
G1 X12.790 Y9.847 Z9.530 F60.000
G1 X12.790 Y6.194 Z9.530 F60.000
G1 X77.223 Y6.194 Z9.530 F60.000
G2 X79.529 Y5.190 Z9.530 I0.011 J-3.126 F60.000
G1 X109.917 Y5.190 Z9.530 F60.000
G2 X112.223 Y6.194 Z9.530 I2.295 J-2.122 F60.000
G1 X176.650 Y6.194 Z9.530 F60.000
G1 X176.650 Y9.846 Z9.530 F60.000
G0 X176.650 Y9.846 Z17.700
G0 X175.065 Y8.245 Z17.700
G1 X175.065 Y8.245 Z9.530 F60.000
G1 X14.375 Y8.245 Z9.530 F60.000
G1 X14.375 Y7.779 Z9.530 F60.000
G1 X77.223 Y7.779 Z9.530 F60.000
G2 X80.137 Y6.775 Z9.530 I0.011 J-4.700 F60.000
G1 X109.306 Y6.775 Z9.530 F60.000
G2 X112.223 Y7.779 Z9.530 I2.913 J-3.723 F60.000
G1 X175.065 Y7.779 Z9.530 F60.000
G1 X175.065 Y8.245 Z9.530 F60.000
G1 X175.065 Y8.245 Z6.360 F60.000
G1 X14.375 Y8.245 Z6.360 F60.000
G1 X14.375 Y7.779 Z6.360 F60.000
G1 X77.223 Y7.779 Z6.360 F60.000
G2 X80.137 Y6.775 Z6.360 I0.011 J-4.700 F60.000
G1 X109.306 Y6.775 Z6.360 F60.000
G2 X112.223 Y7.779 Z6.360 I2.913 J-3.723 F60.000
G1 X175.065 Y7.779 Z6.360 F60.000
G1 X175.065 Y8.245 Z6.360 F60.000
G0 X175.065 Y8.245 Z17.700
G0 X175.065 Y9.830 Z17.700
G1 X175.065 Y9.830 Z6.360 F60.000
G1 X13.000 Y9.830 Z6.360 F60.000
G1 X12.790 Y9.847 Z6.360 F60.000
G1 X12.790 Y6.194 Z6.360 F60.000
G1 X77.223 Y6.194 Z6.360 F60.000
G2 X79.529 Y5.190 Z6.360 I0.011 J-3.126 F60.000
G1 X109.917 Y5.190 Z6.360 F60.000
G2 X112.223 Y6.194 Z6.360 I2.295 J-2.122 F60.000
G1 X176.650 Y6.194 Z6.360 F60.000
G1 X176.650 Y9.846 Z6.360 F60.000
G1 X176.444 Y9.830 Z6.360 F60.000
G1 X175.065 Y9.830 Z6.360 F60.000
G0 X175.065 Y9.830 Z17.700
G0 X175.065 Y11.415 Z17.700
G1 X175.065 Y11.415 Z6.360 F60.000
G1 X176.444 Y11.415 Z6.360 F60.000
G3 X178.029 Y13.000 Z6.360 I-0.000 J1.585 F60.000
G1 X178.029 Y110.630 Z6.360 F60.000
G3 X176.444 Y112.215 Z6.360 I-1.585 J-0.000 F60.000
G1 X13.000 Y112.215 Z6.360 F60.000
G3 X11.415 Y110.630 Z6.360 I0.000 J-1.585 F60.000
G1 X11.415 Y13.000 Z6.360 F60.000
G3 X13.000 Y11.415 Z6.360 I1.585 J0.000 F60.000
G1 X175.065 Y11.415 Z6.360 F60.000
G0 X175.065 Y11.415 Z17.700
G0 X178.235 Y11.415 Z17.700
G1 X178.235 Y11.415 Z6.360 F60.000
G1 X178.235 Y112.639 Z6.360 F60.000
G1 X11.205 Y112.639 Z6.360 F60.000
G1 X11.205 Y4.609 Z6.360 F60.000
G1 X77.223 Y4.609 Z6.360 F60.000
G2 X78.688 Y3.605 Z6.360 I0.010 J-1.557 F60.000
G1 X110.758 Y3.605 Z6.360 F60.000
G2 X112.223 Y4.609 Z6.360 I1.456 J-0.553 F60.000
G1 X178.235 Y4.609 Z6.360 F60.000
G1 X178.235 Y11.415 Z6.360 F60.000
G1 X178.235 Y11.415 Z3.190 F60.000
G1 X178.235 Y112.639 Z3.190 F60.000
G1 X11.205 Y112.639 Z3.190 F60.000
G1 X11.205 Y4.609 Z3.190 F60.000
G1 X77.223 Y4.609 Z3.190 F60.000
G2 X78.688 Y3.605 Z3.190 I0.010 J-1.557 F60.000
G1 X110.758 Y3.605 Z3.190 F60.000
G2 X112.223 Y4.609 Z3.190 I1.456 J-0.553 F60.000
G1 X178.235 Y4.609 Z3.190 F60.000
G1 X178.235 Y11.415 Z3.190 F60.000
G0 X178.235 Y11.415 Z17.700
G0 X177.631 Y11.950 Z17.700
G1 X177.631 Y11.950 Z3.190 F60.000
G3 X178.029 Y13.000 Z3.190 I-1.187 J1.050 F60.000
G1 X178.029 Y110.630 Z3.190 F60.000
G3 X176.444 Y112.215 Z3.190 I-1.585 J-0.000 F60.000
G1 X13.000 Y112.215 Z3.190 F60.000
G3 X11.415 Y110.630 Z3.190 I0.000 J-1.585 F60.000
G1 X11.415 Y13.000 Z3.190 F60.000
G3 X13.000 Y11.415 Z3.190 I1.585 J0.000 F60.000
G1 X176.444 Y11.415 Z3.190 F60.000
G3 X177.631 Y11.950 Z3.190 I-0.000 J1.585 F60.000
G0 X177.631 Y11.950 Z17.700
G0 X176.650 Y9.846 Z17.700
G1 X176.650 Y9.846 Z3.190 F60.000
G1 X176.444 Y9.830 Z3.190 F60.000
G1 X13.000 Y9.830 Z3.190 F60.000
G1 X12.790 Y9.847 Z3.190 F60.000
G1 X12.790 Y6.194 Z3.190 F60.000
G1 X77.223 Y6.194 Z3.190 F60.000
G2 X79.529 Y5.190 Z3.190 I0.011 J-3.126 F60.000
G1 X109.917 Y5.190 Z3.190 F60.000
G2 X112.223 Y6.194 Z3.190 I2.295 J-2.122 F60.000
G1 X176.650 Y6.194 Z3.190 F60.000
G1 X176.650 Y9.846 Z3.190 F60.000
G0 X176.650 Y9.846 Z17.700
G0 X175.065 Y8.245 Z17.700
G1 X175.065 Y8.245 Z3.190 F60.000
G1 X14.375 Y8.245 Z3.190 F60.000
G1 X14.375 Y7.779 Z3.190 F60.000
G1 X77.223 Y7.779 Z3.190 F60.000
G2 X80.137 Y6.775 Z3.190 I0.011 J-4.700 F60.000
G1 X109.306 Y6.775 Z3.190 F60.000
G2 X112.223 Y7.779 Z3.190 I2.913 J-3.723 F60.000
G1 X175.065 Y7.779 Z3.190 F60.000
G1 X175.065 Y8.245 Z3.190 F60.000
G1 X175.065 Y8.245 Z1.000 F60.000
G1 X14.375 Y8.245 Z1.000 F60.000
G1 X14.375 Y7.779 Z1.000 F60.000
G1 X77.223 Y7.779 Z1.000 F60.000
G2 X80.137 Y6.775 Z1.000 I0.011 J-4.700 F60.000
G1 X109.306 Y6.775 Z1.000 F60.000
G2 X112.223 Y7.779 Z1.000 I2.913 J-3.723 F60.000
G1 X175.065 Y7.779 Z1.000 F60.000
G1 X175.065 Y8.245 Z1.000 F60.000
G0 X175.065 Y8.245 Z17.700
G0 X175.065 Y9.830 Z17.700
G0 X175.065 Y9.830 Z16.700
G1 X175.065 Y9.830 Z1.000 F60.000
G1 X13.000 Y9.830 Z1.000 F60.000
G1 X12.790 Y9.847 Z1.000 F60.000
G1 X12.790 Y6.194 Z1.000 F60.000
G1 X77.223 Y6.194 Z1.000 F60.000
G2 X79.529 Y5.190 Z1.000 I0.011 J-3.126 F60.000
G1 X109.917 Y5.190 Z1.000 F60.000
G2 X112.223 Y6.194 Z1.000 I2.295 J-2.122 F60.000
G1 X176.650 Y6.194 Z1.000 F60.000
G1 X176.650 Y9.846 Z1.000 F60.000
G1 X176.444 Y9.830 Z1.000 F60.000
G1 X175.065 Y9.830 Z1.000 F60.000
G0 X175.065 Y9.830 Z17.700
G0 X175.065 Y11.415 Z17.700
G0 X175.065 Y11.415 Z16.700
G1 X175.065 Y11.415 Z1.000 F60.000
G1 X176.444 Y11.415 Z1.000 F60.000
G3 X178.029 Y13.000 Z1.000 I-0.000 J1.585 F60.000
G1 X178.029 Y110.630 Z1.000 F60.000
G3 X176.444 Y112.215 Z1.000 I-1.585 J-0.000 F60.000
G1 X13.000 Y112.215 Z1.000 F60.000
G3 X11.415 Y110.630 Z1.000 I0.000 J-1.585 F60.000
G1 X11.415 Y13.000 Z1.000 F60.000
G3 X13.000 Y11.415 Z1.000 I1.585 J0.000 F60.000
G1 X175.065 Y11.415 Z1.000 F60.000
G0 X175.065 Y11.415 Z17.700
G0 X178.235 Y11.415 Z17.700
G0 X178.235 Y11.415 Z16.700
G1 X178.235 Y11.415 Z1.000 F60.000
G1 X178.235 Y112.639 Z1.000 F60.000
G1 X11.205 Y112.639 Z1.000 F60.000
G1 X11.205 Y4.609 Z1.000 F60.000
G1 X77.223 Y4.609 Z1.000 F60.000
G2 X78.688 Y3.605 Z1.000 I0.010 J-1.557 F60.000
G1 X110.758 Y3.605 Z1.000 F60.000
G2 X112.223 Y4.609 Z1.000 I1.456 J-0.553 F60.000
G1 X178.235 Y4.609 Z1.000 F60.000
G1 X178.235 Y11.415 Z1.000 F60.000
G0 Z17.700
(finish operation: Carve)
(begin operation: Fine)
(machine: not set, mm/min)
(Fine)
M6 T1
M3 S0
(finish operation: Fine)
(begin operation: Clean)
(machine: not set, mm/min)
(Profile_Edges001)
(Compensated Tool Path. Diameter: 1.0)
G0 Z18.700
G0 X179.320 Y113.724
G0 Z16.700
G1 X179.320 Y113.724 Z12.700 F60.000
G1 X179.320 Y3.524 Z12.700 F60.000
G1 X112.223 Y3.524 Z12.700 F60.000
G3 X111.761 Y3.215 Z12.700 I-0.000 J-0.500 F60.000
G3 X111.723 Y2.520 Z12.700 I1.729 J-0.443 F60.000
G1 X77.723 Y2.520 Z12.700 F60.000
G1 X77.723 Y3.024 Z12.700 F60.000
G3 X77.223 Y3.524 Z12.700 I-0.500 J0.000 F60.000
G1 X10.120 Y3.524 Z12.700 F60.000
G1 X10.120 Y113.724 Z12.700 F60.000
G1 X179.320 Y113.724 Z12.700 F60.000
G0 Z18.700
(finish operation: Clean)
(begin operation: Fine)
(machine: not set, mm/min)
(Fine)
M6 T1
M3 S0
(finish operation: Fine)
(begin operation: Inside)
(machine: not set, mm/min)
(Profile_Edges)
(Compensated Tool Path. Diameter: 1.0)
G0 Z17.700
G0 X175.944 Y110.130
G0 Z15.700
G1 X175.944 Y110.130 Z11.700 F60.000
G1 X175.944 Y13.500 Z11.700 F60.000
G1 X13.500 Y13.500 Z11.700 F60.000
G1 X13.500 Y110.130 Z11.700 F60.000
G1 X175.944 Y110.130 Z11.700 F60.000
G1 X175.944 Y110.130 Z10.700 F60.000
G1 X175.944 Y13.500 Z10.700 F60.000
G1 X13.500 Y13.500 Z10.700 F60.000
G1 X13.500 Y110.130 Z10.700 F60.000
G1 X175.944 Y110.130 Z10.700 F60.000
G1 X175.944 Y110.130 Z9.700 F60.000
G1 X175.944 Y13.500 Z9.700 F60.000
G1 X13.500 Y13.500 Z9.700 F60.000
G1 X13.500 Y110.130 Z9.700 F60.000
G1 X175.944 Y110.130 Z9.700 F60.000
G1 X175.944 Y110.130 Z8.700 F60.000
G1 X175.944 Y13.500 Z8.700 F60.000
G1 X13.500 Y13.500 Z8.700 F60.000
G1 X13.500 Y110.130 Z8.700 F60.000
G1 X175.944 Y110.130 Z8.700 F60.000
G1 X175.944 Y110.130 Z7.700 F60.000
G1 X175.944 Y13.500 Z7.700 F60.000
G1 X13.500 Y13.500 Z7.700 F60.000
G1 X13.500 Y110.130 Z7.700 F60.000
G1 X175.944 Y110.130 Z7.700 F60.000
G1 X175.944 Y110.130 Z6.700 F60.000
G1 X175.944 Y13.500 Z6.700 F60.000
G1 X13.500 Y13.500 Z6.700 F60.000
G1 X13.500 Y110.130 Z6.700 F60.000
G1 X175.944 Y110.130 Z6.700 F60.000
G1 X175.944 Y110.130 Z5.700 F60.000
G1 X175.944 Y13.500 Z5.700 F60.000
G1 X13.500 Y13.500 Z5.700 F60.000
G1 X13.500 Y110.130 Z5.700 F60.000
G1 X175.944 Y110.130 Z5.700 F60.000
G1 X175.944 Y110.130 Z4.700 F60.000
G1 X175.944 Y13.500 Z4.700 F60.000
G1 X13.500 Y13.500 Z4.700 F60.000
G1 X13.500 Y110.130 Z4.700 F60.000
G1 X175.944 Y110.130 Z4.700 F60.000
G1 X175.944 Y110.130 Z3.700 F60.000
G1 X175.944 Y13.500 Z3.700 F60.000
G1 X13.500 Y13.500 Z3.700 F60.000
G1 X13.500 Y110.130 Z3.700 F60.000
G1 X175.944 Y110.130 Z3.700 F60.000
G1 X175.944 Y110.130 Z2.700 F60.000
G1 X175.944 Y13.500 Z2.700 F60.000
G1 X13.500 Y13.500 Z2.700 F60.000
G1 X13.500 Y110.130 Z2.700 F60.000
G1 X175.944 Y110.130 Z2.700 F60.000
G1 X175.944 Y110.130 Z1.700 F60.000
G1 X175.944 Y13.500 Z1.700 F60.000
G1 X13.500 Y13.500 Z1.700 F60.000
G1 X13.500 Y110.130 Z1.700 F60.000
G1 X175.944 Y110.130 Z1.700 F60.000
G1 X175.944 Y110.130 Z0.700 F60.000
G1 X175.944 Y13.500 Z0.700 F60.000
G1 X13.500 Y13.500 Z0.700 F60.000
G1 X13.500 Y110.130 Z0.700 F60.000
G1 X175.944 Y110.130 Z0.700 F60.000
G1 X175.944 Y110.130 Z0.000 F60.000
G1 X175.944 Y13.500 Z0.000 F60.000
G1 X13.500 Y13.500 Z0.000 F60.000
G1 X13.500 Y110.130 Z0.000 F60.000
G1 X175.944 Y110.130 Z0.000 F60.000
G0 Z17.700
(finish operation: Inside)
(begin operation: Coarse)
(machine: not set, mm/min)
(Coarse)
M6 T3
M3 S0
(finish operation: Coarse)
(begin operation: Outside)
(machine: not set, mm/min)
(Outside)
(Compensated Tool Path. Diameter: 3.17)
G0 Z17.700
G0 X190.567 Y124.751
G0 Z15.700
G1 X190.567 Y124.751 Z9.530 F60.000
G2 X191.031 Y123.630 Z9.530 I-1.121 J-1.121 F60.000
G1 X191.031 Y0.000 Z9.530 F60.000
G2 X189.446 Y-1.585 Z9.530 I-1.585 J0.000 F60.000
G1 X0.000 Y-1.585 Z9.530 F60.000
G2 X-1.585 Y0.000 Z9.530 I0.000 J1.585 F60.000
G1 X-1.585 Y123.630 Z9.530 F60.000
G2 X0.000 Y125.215 Z9.530 I1.585 J-0.000 F60.000
G1 X189.446 Y125.215 Z9.530 F60.000
G2 X190.567 Y124.751 Z9.530 I-0.000 J-1.585 F60.000
G1 X190.567 Y124.751 Z6.360 F60.000
G2 X191.031 Y123.630 Z6.360 I-1.121 J-1.121 F60.000
G1 X191.031 Y0.000 Z6.360 F60.000
G2 X189.446 Y-1.585 Z6.360 I-1.585 J0.000 F60.000
G1 X0.000 Y-1.585 Z6.360 F60.000
G2 X-1.585 Y0.000 Z6.360 I0.000 J1.585 F60.000
G1 X-1.585 Y123.630 Z6.360 F60.000
G2 X0.000 Y125.215 Z6.360 I1.585 J-0.000 F60.000
G1 X189.446 Y125.215 Z6.360 F60.000
G2 X190.567 Y124.751 Z6.360 I-0.000 J-1.585 F60.000
G1 X190.567 Y124.751 Z3.190 F60.000
G2 X191.031 Y123.630 Z3.190 I-1.121 J-1.121 F60.000
G1 X191.031 Y0.000 Z3.190 F60.000
G2 X189.446 Y-1.585 Z3.190 I-1.585 J0.000 F60.000
G1 X0.000 Y-1.585 Z3.190 F60.000
G2 X-1.585 Y0.000 Z3.190 I0.000 J1.585 F60.000
G1 X-1.585 Y123.630 Z3.190 F60.000
G2 X0.000 Y125.215 Z3.190 I1.585 J-0.000 F60.000
G1 X189.446 Y125.215 Z3.190 F60.000
G2 X190.567 Y124.751 Z3.190 I-0.000 J-1.585 F60.000
G1 X190.567 Y124.751 Z0.020 F60.000
G2 X191.031 Y123.630 Z0.020 I-1.121 J-1.121 F60.000
G1 X191.031 Y0.000 Z0.020 F60.000
G2 X189.446 Y-1.585 Z0.020 I-1.585 J0.000 F60.000
G1 X0.000 Y-1.585 Z0.020 F60.000
G2 X-1.585 Y0.000 Z0.020 I0.000 J1.585 F60.000
G1 X-1.585 Y123.630 Z0.020 F60.000
G2 X0.000 Y125.215 Z0.020 I1.585 J-0.000 F60.000
G1 X189.446 Y125.215 Z0.020 F60.000
G2 X190.567 Y124.751 Z0.020 I-0.000 J-1.585 F60.000
G1 X190.567 Y124.751 Z0.000 F60.000
G2 X191.031 Y123.630 Z0.000 I-1.121 J-1.121 F60.000
G1 X191.031 Y0.000 Z0.000 F60.000
G2 X189.446 Y-1.585 Z0.000 I-1.585 J0.000 F60.000
G1 X0.000 Y-1.585 Z0.000 F60.000
G2 X-1.585 Y0.000 Z0.000 I0.000 J1.585 F60.000
G1 X-1.585 Y123.630 Z0.000 F60.000
G2 X0.000 Y125.215 Z0.000 I1.585 J-0.000 F60.000
G1 X189.446 Y125.215 Z0.000 F60.000
G2 X190.567 Y124.751 Z0.000 I-0.000 J-1.585 F60.000
G0 Z17.700
(finish operation: Outside)
(begin postamble)
M05
G17 G54 G90 G80 G40
M2
